assets/images/widget-2.svg

<?xml version="1.0" encoding="UTF-8"?>
<svg width="51px" height="48px" viewBox="0 0 51 48" version="1.1" xmlns="http://www.w3.org/2000/svg" xmlns:xlink="http://www.w3.org/1999/xlink">
    <!-- Generator: Sketch 63.1 (92452) - https://sketch.com -->
    <title>Group</title>
    <desc>Created with Sketch.</desc>
    <defs>
        <linearGradient x1="50%" y1="0%" x2="50%" y2="100%" id="linearGradient-1">
            <stop stop-color="#062FF9" offset="0%"></stop>
            <stop stop-color="#0225D0" offset="100%"></stop>
        </linearGradient>
        <linearGradient x1="50%" y1="0%" x2="50%" y2="100%" id="linearGradient-2">
            <stop stop-color="#062FF9" offset="0%"></stop>
            <stop stop-color="#0225D0" offset="100%"></stop>
        </linearGradient>
        <linearGradient x1="50%" y1="0%" x2="50%" y2="100%" id="linearGradient-3">
            <stop stop-color="#062FF9" offset="0%"></stop>
            <stop stop-color="#0225D0" offset="100%"></stop>
        </linearGradient>
        <linearGradient x1="50%" y1="0%" x2="50%" y2="100%" id="linearGradient-4">
            <stop stop-color="#062FF9" offset="0%"></stop>
            <stop stop-color="#0225D0" offset="100%"></stop>
        </linearGradient>
        <linearGradient x1="50%" y1="0%" x2="50%" y2="100%" id="linearGradient-5">
            <stop stop-color="#062FF9" offset="0%"></stop>
            <stop stop-color="#0225D0" offset="100%"></stop>
        </linearGradient>
        <linearGradient x1="50%" y1="0%" x2="50%" y2="100%" id="linearGradient-6">
            <stop stop-color="#062FF9" offset="0%"></stop>
            <stop stop-color="#0225D0" offset="100%"></stop>
        </linearGradient>
        <linearGradient x1="50%" y1="0%" x2="50%" y2="100%" id="linearGradient-7">
            <stop stop-color="#062FF9" offset="0%"></stop>
            <stop stop-color="#0225D0" offset="100%"></stop>
        </linearGradient>
        <linearGradient x1="50%" y1="0%" x2="50%" y2="100%" id="linearGradient-8">
            <stop stop-color="#062FF9" offset="0%"></stop>
            <stop stop-color="#0225D0" offset="100%"></stop>
        </linearGradient>
        <linearGradient x1="50%" y1="0%" x2="50%" y2="100%" id="linearGradient-9">
            <stop stop-color="#062FF9" offset="0%"></stop>
            <stop stop-color="#0225D0" offset="100%"></stop>
        </linearGradient>
        <linearGradient x1="50%" y1="0%" x2="50%" y2="100%" id="linearGradient-10">
            <stop stop-color="#062FF9" offset="0%"></stop>
            <stop stop-color="#0225D0" offset="100%"></stop>
        </linearGradient>
        <linearGradient x1="50%" y1="0%" x2="50%" y2="100%" id="linearGradient-11">
            <stop stop-color="#062FF9" offset="0%"></stop>
            <stop stop-color="#0225D0" offset="100%"></stop>
        </linearGradient>
        <linearGradient x1="50%" y1="0%" x2="50%" y2="100%" id="linearGradient-12">
            <stop stop-color="#062FF9" offset="0%"></stop>
            <stop stop-color="#0225D0" offset="100%"></stop>
        </linearGradient>
        <linearGradient x1="50%" y1="0%" x2="50%" y2="100%" id="linearGradient-13">
            <stop stop-color="#062FF9" offset="0%"></stop>
            <stop stop-color="#0225D0" offset="100%"></stop>
        </linearGradient>
        <linearGradient x1="50%" y1="0%" x2="50%" y2="100%" id="linearGradient-14">
            <stop stop-color="#062FF9" offset="0%"></stop>
            <stop stop-color="#0225D0" offset="100%"></stop>
        </linearGradient>
        <linearGradient x1="50%" y1="0%" x2="50%" y2="100%" id="linearGradient-15">
            <stop stop-color="#062FF9" offset="0%"></stop>
            <stop stop-color="#0225D0" offset="100%"></stop>
        </linearGradient>
    </defs>
    <g id="Mobile---375px" stroke="none" stroke-width="1" fill="none" fill-rule="evenodd">
        <g id="Mobile-1---375px" transform="translate(-162.000000, -944.000000)" fill-rule="nonzero">
            <g id="Group-6" transform="translate(136.000000, 916.000000)">
                <g id="noun_Website-coding_3060702" transform="translate(26.000000, 28.000000)">
                    <g id="Group">
                        <path d="M3.58515656,44.45624 L47.4132816,44.45624 C47.6335139,44.45624 47.8117191,44.277336 47.8117191,44.05624 L47.8117191,11.472264 C47.8117191,11.251168 47.6335139,11.072264 47.4132816,11.072264 L3.58515656,11.072264 C3.36492422,11.072264 3.18671906,11.251168 3.18671906,11.472264 L3.18671906,44.05624 C3.18671906,44.277336 3.36493219,44.45624 3.58515656,44.45624 Z M3.98359406,11.872264 L47.0148441,11.872264 L47.0148441,43.65624 L3.98359406,43.65624 L3.98359406,11.872264 Z" id="Shape" fill="url(#linearGradient-1)"></path>
                        <path d="M2.7890625,47.655856 L48.2109375,47.655856 C49.7486592,47.655856 51,46.399608 51,44.855856 C51,35.207272 51,11.803216 51,3.144136 C51,1.600384 49.7486592,0.344136 48.2109375,0.344136 L2.7890625,0.344136 C1.25134078,0.344136 0,1.600384 0,3.144136 C0,11.886008 0,35.27424 0,44.855856 C0,46.3996 1.25134078,47.655856 2.7890625,47.655856 Z M0.796875,3.144136 C0.796875,2.0414 1.69024359,1.144136 2.7890625,1.144136 L48.2109375,1.144136 C49.3097564,1.144136 50.203125,2.0414 50.203125,3.144136 L50.203125,7.872264 L0.796875,7.872264 L0.796875,3.144136 Z M0.796875,8.672264 L50.203125,8.672264 L50.203125,44.855856 C50.203125,45.958592 49.3097564,46.855856 48.2109375,46.855856 L2.7890625,46.855856 C1.69024359,46.855856 0.796875,45.958592 0.796875,44.855856 L0.796875,8.672264 Z" id="Shape" fill="url(#linearGradient-2)"></path>
                        <path d="M6.37266516,3.005464 C5.54232937,3.005464 4.86685031,3.67968 4.86685031,4.5082 C4.86685031,5.33672 5.54232937,6.010544 6.37266516,6.010544 C7.19288859,6.010544 7.86058219,5.336712 7.86058219,4.5082 C7.86058219,3.679688 7.19288859,3.005464 6.37266516,3.005464 Z M6.37266516,5.210544 C5.98201312,5.210544 5.66372531,4.895312 5.66372531,4.5082 C5.66372531,4.120696 5.98200516,3.805464 6.37266516,3.805464 C6.75398578,3.805464 7.06370719,4.120696 7.06370719,4.5082 C7.06370719,4.895304 6.75398578,5.210544 6.37266516,5.210544 Z" id="Shape" fill="url(#linearGradient-3)"></path>
                        <path d="M10.4916722,3.005464 C9.66133641,3.005464 8.98585734,3.67968 8.98585734,4.5082 C8.98585734,5.33672 9.66133641,6.010544 10.4916722,6.010544 C11.3118956,6.010544 11.9795892,5.336712 11.9795892,4.5082 C11.9795892,3.679688 11.3118877,3.005464 10.4916722,3.005464 Z M10.4916722,5.210544 C10.1010202,5.210544 9.78273234,4.895312 9.78273234,4.5082 C9.78273234,4.120696 10.1010122,3.805464 10.4916722,3.805464 C10.8729928,3.805464 11.1827142,4.120696 11.1827142,4.5082 C11.1827142,4.895304 10.8729848,5.210544 10.4916722,5.210544 Z" id="Shape" fill="url(#linearGradient-3)"></path>
                        <path d="M14.6098903,3.005464 C13.7803275,3.005464 13.1048564,3.67968 13.1048564,4.5082 C13.1048564,5.33672 13.7803355,6.010544 14.6098903,6.010544 C15.4301138,6.010544 16.0978073,5.336712 16.0978073,4.5082 C16.0978073,3.679688 15.4301138,3.005464 14.6098903,3.005464 Z M14.6098903,5.210544 C14.2192383,5.210544 13.9017314,4.895312 13.9017314,4.5082 C13.9017314,4.120696 14.2192383,3.805464 14.6098903,3.805464 C14.9912109,3.805464 15.3009323,4.120696 15.3009323,4.5082 C15.3009323,4.895304 14.9912109,5.210544 14.6098903,5.210544 Z" id="Shape" fill="url(#linearGradient-4)"></path>
                        <path d="M45.2996981,4.1082 L19.7498934,4.1082 C19.5296611,4.1082 19.3514559,4.287104 19.3514559,4.5082 C19.3514559,4.729296 19.5296611,4.9082 19.7498934,4.9082 L45.2996981,4.9082 C45.5199305,4.9082 45.6981356,4.729296 45.6981356,4.5082 C45.6981356,4.287104 45.5199305,4.1082 45.2996981,4.1082 Z" id="Path" fill="url(#linearGradient-5)"></path>
                        <path d="M20.2790662,25.967184 C20.4440911,26.110416 20.6970352,26.09344 20.8409269,25.925384 C20.9841173,25.757808 20.9654386,25.505464 20.7989077,25.360928 L16.3297139,21.493352 L20.7996886,17.620696 C20.9662195,17.476552 20.9841253,17.223824 20.8409348,17.056632 C20.6954095,16.888664 20.4448322,16.871472 20.2783012,17.015224 L15.4589208,21.190616 C15.3717586,21.2664 15.3211809,21.376944 15.3211809,21.493352 C15.3211809,21.60976 15.3717666,21.720304 15.4597017,21.79648 L20.2790662,25.967184 Z" id="Path" fill="url(#linearGradient-6)"></path>
                        <path d="M34.6695131,21.493352 L30.2003194,25.360928 C30.0337884,25.505456 30.0151097,25.7578 30.1583002,25.925384 C30.3021998,26.093456 30.5551519,26.110408 30.7201608,25.967184 L35.5395413,21.79648 C35.6274764,21.720312 35.678062,21.60976 35.678062,21.493352 C35.678062,21.376944 35.6274764,21.2664 35.5403222,21.190616 L30.7209417,17.015224 C30.5544108,16.871472 30.3038255,16.888664 30.1583081,17.056632 C30.0151177,17.223816 30.0330155,17.476552 30.1995544,17.620696 L34.6695131,21.493352 Z" id="Path" fill="url(#linearGradient-7)"></path>
                        <path d="M22.3646395,29.089056 C22.5660975,29.1728 22.7999006,29.078512 22.8852539,28.872648 L28.8501422,14.415616 C28.9341886,14.21132 28.837687,13.977336 28.6345795,13.89296 C28.4306911,13.808192 28.1987845,13.905848 28.1139652,14.109368 L22.1490769,28.5664 C22.0650305,28.770696 22.161532,29.00468 22.3646395,29.089056 Z" id="Path" fill="url(#linearGradient-8)"></path>
                        <path d="M9.74070516,32.872256 L25.8338428,32.872256 C26.0540752,32.872256 26.2322803,32.693352 26.2322803,32.472256 C26.2322803,32.25116 26.0540752,32.072256 25.8338428,32.072256 L9.74070516,32.072256 C9.52047281,32.072256 9.34226766,32.25116 9.34226766,32.472256 C9.34226766,32.693352 9.52048078,32.872256 9.74070516,32.872256 Z" id="Path" fill="url(#linearGradient-9)"></path>
                        <path d="M33.8726381,32.472256 C33.8726381,32.25116 33.694433,32.072256 33.4742006,32.072256 L28.4828386,32.072256 C28.2626063,32.072256 28.0844011,32.25116 28.0844011,32.472256 C28.0844011,32.693352 28.2626063,32.872256 28.4828386,32.872256 L33.4742006,32.872256 C33.694425,32.872256 33.8726381,32.693352 33.8726381,32.472256 Z" id="Path" fill="url(#linearGradient-10)"></path>
                        <path d="M41.2585139,32.072256 L35.5776638,32.072256 C35.3574314,32.072256 35.1792263,32.25116 35.1792263,32.472256 C35.1792263,32.693352 35.3574314,32.872256 35.5776638,32.872256 L41.2585139,32.872256 C41.4787463,32.872256 41.6569514,32.693352 41.6569514,32.472256 C41.6569514,32.25116 41.4787463,32.072256 41.2585139,32.072256 Z" id="Path" fill="url(#linearGradient-11)"></path>
                        <path d="M9.74070516,36.072256 L21.8494678,36.072256 C22.0697002,36.072256 22.2479053,35.893352 22.2479053,35.672256 C22.2479053,35.45116 22.0697002,35.272256 21.8494678,35.272256 L9.74070516,35.272256 C9.52047281,35.272256 9.34226766,35.45116 9.34226766,35.672256 C9.34226766,35.893352 9.52048078,36.072256 9.74070516,36.072256 Z" id="Path" fill="url(#linearGradient-12)"></path>
                        <path d="M24.4984556,35.272256 C24.2782233,35.272256 24.1000181,35.45116 24.1000181,35.672256 C24.1000181,35.893352 24.2782233,36.072256 24.4984556,36.072256 L29.4898177,36.072256 C29.71005,36.072256 29.8882552,35.893352 29.8882552,35.672256 C29.8882552,35.45116 29.71005,35.272256 29.4898177,35.272256 L24.4984556,35.272256 Z" id="Path" fill="url(#linearGradient-10)"></path>
                        <path d="M41.2585139,35.272256 L31.5932887,35.272256 C31.3730564,35.272256 31.1948512,35.45116 31.1948512,35.672256 C31.1948512,35.893352 31.3730564,36.072256 31.5932887,36.072256 L41.2585139,36.072256 C41.4787463,36.072256 41.6569514,35.893352 41.6569514,35.672256 C41.6569514,35.45116 41.4787463,35.272256 41.2585139,35.272256 Z" id="Path" fill="url(#linearGradient-13)"></path>
                        <path d="M17.8651008,38.472256 L9.74070516,38.472256 C9.52047281,38.472256 9.34226766,38.65116 9.34226766,38.872256 C9.34226766,39.093352 9.52047281,39.272256 9.74070516,39.272256 L17.8650928,39.272256 C18.0853252,39.272256 18.2635303,39.093352 18.2635303,38.872256 C18.2635303,38.65116 18.0853252,38.472256 17.8651008,38.472256 Z" id="Path" fill="url(#linearGradient-14)"></path>
                        <path d="M25.5054506,38.472256 L20.5140886,38.472256 C20.2938563,38.472256 20.1156511,38.65116 20.1156511,38.872256 C20.1156511,39.093352 20.2938563,39.272256 20.5140886,39.272256 L25.5054506,39.272256 C25.725683,39.272256 25.9038881,39.093352 25.9038881,38.872256 C25.9038881,38.65116 25.725675,38.472256 25.5054506,38.472256 Z" id="Path" fill="url(#linearGradient-10)"></path>
                        <path d="M41.2585139,38.472256 L27.6089137,38.472256 C27.3886814,38.472256 27.2104762,38.65116 27.2104762,38.872256 C27.2104762,39.093352 27.3886814,39.272256 27.6089137,39.272256 L41.2585139,39.272256 C41.4787463,39.272256 41.6569514,39.093352 41.6569514,38.872256 C41.6569514,38.65116 41.4787463,38.472256 41.2585139,38.472256 Z" id="Path" fill="url(#linearGradient-15)"></path>
                    </g>
                </g>
            </g>
        </g>
    </g>
</svg>

<svg width="51px" height="48px" xmlns="http://www.w3.org/2000/svg" viewBox="0 0 51 48">
  <defs/>
  <defs>
    <linearGradient id="a" x1="50%" x2="50%" y1="0%" y2="100%">
      <stop offset="0%" stop-color="#062FF9"/>
      <stop offset="100%" stop-color="#0225D0"/>
    </linearGradient>
    <linearGradient id="b" x1="50%" x2="50%" y1="0%" y2="100%">
      <stop offset="0%" stop-color="#062FF9"/>
      <stop offset="100%" stop-color="#0225D0"/>
    </linearGradient>
    <linearGradient id="c" x1="50%" x2="50%" y1="0%" y2="100%">
      <stop offset="0%" stop-color="#062FF9"/>
      <stop offset="100%" stop-color="#0225D0"/>
    </linearGradient>
    <linearGradient id="d" x1="50%" x2="50%" y1="0%" y2="100%">
      <stop offset="0%" stop-color="#062FF9"/>
      <stop offset="100%" stop-color="#0225D0"/>
    </linearGradient>
    <linearGradient id="e" x1="50%" x2="50%" y1="0%" y2="100%">
      <stop offset="0%" stop-color="#062FF9"/>
      <stop offset="100%" stop-color="#0225D0"/>
    </linearGradient>
    <linearGradient id="f" x1="50%" x2="50%" y1="0%" y2="100%">
      <stop offset="0%" stop-color="#062FF9"/>
      <stop offset="100%" stop-color="#0225D0"/>
    </linearGradient>
    <linearGradient id="g" x1="50%" x2="50%" y1="0%" y2="100%">
      <stop offset="0%" stop-color="#062FF9"/>
      <stop offset="100%" stop-color="#0225D0"/>
    </linearGradient>
    <linearGradient id="h" x1="50%" x2="50%" y1="0%" y2="100%">
      <stop offset="0%" stop-color="#062FF9"/>
      <stop offset="100%" stop-color="#0225D0"/>
    </linearGradient>
    <linearGradient id="i" x1="50%" x2="50%" y1="0%" y2="100%">
      <stop offset="0%" stop-color="#062FF9"/>
      <stop offset="100%" stop-color="#0225D0"/>
    </linearGradient>
    <linearGradient id="j" x1="50%" x2="50%" y1="0%" y2="100%">
      <stop offset="0%" stop-color="#062FF9"/>
      <stop offset="100%" stop-color="#0225D0"/>
    </linearGradient>
    <linearGradient id="k" x1="50%" x2="50%" y1="0%" y2="100%">
      <stop offset="0%" stop-color="#062FF9"/>
      <stop offset="100%" stop-color="#0225D0"/>
    </linearGradient>
    <linearGradient id="l" x1="50%" x2="50%" y1="0%" y2="100%">
      <stop offset="0%" stop-color="#062FF9"/>
      <stop offset="100%" stop-color="#0225D0"/>
    </linearGradient>
    <linearGradient id="m" x1="50%" x2="50%" y1="0%" y2="100%">
      <stop offset="0%" stop-color="#062FF9"/>
      <stop offset="100%" stop-color="#0225D0"/>
    </linearGradient>
    <linearGradient id="n" x1="50%" x2="50%" y1="0%" y2="100%">
      <stop offset="0%" stop-color="#062FF9"/>
      <stop offset="100%" stop-color="#0225D0"/>
    </linearGradient>
    <linearGradient id="o" x1="50%" x2="50%" y1="0%" y2="100%">
      <stop offset="0%" stop-color="#062FF9"/>
      <stop offset="100%" stop-color="#0225D0"/>
    </linearGradient>
  </defs>
  <g fill="none" fill-rule="nonzero">
    <path fill="url(#a)" d="M3.585 44.456h43.828c.22 0 .399-.179.399-.4V11.472c0-.22-.178-.4-.399-.4H3.585a.399.399 0 00-.398.4v32.584c0 .221.178.4.398.4zm.399-32.584h43.03v31.784H3.985V11.872z"/>
    <path fill="url(#b)" d="M2.79 47.656h45.42a2.798 2.798 0 002.79-2.8V3.144c0-1.544-1.251-2.8-2.79-2.8H2.79A2.798 2.798 0 000 3.144v41.712c0 1.544 1.251 2.8 2.79 2.8zM.796 3.144c0-1.103.893-2 1.992-2h45.422c1.099 0 1.992.897 1.992 2v4.728H.797V3.144zm0 5.528h49.406v36.184c0 1.103-.893 2-1.992 2H2.789a1.998 1.998 0 01-1.992-2V8.672z"/>
    <path fill="url(#c)" d="M6.373 3.005c-.83 0-1.506.675-1.506 1.503 0 .829.675 1.503 1.506 1.503.82 0 1.488-.674 1.488-1.503 0-.828-.668-1.503-1.488-1.503zm0 2.206a.707.707 0 01-.71-.703c0-.387.319-.703.71-.703.381 0 .69.316.69.703 0 .387-.309.703-.69.703zM10.492 3.005c-.83 0-1.506.675-1.506 1.503 0 .829.675 1.503 1.506 1.503.82 0 1.488-.674 1.488-1.503 0-.828-.668-1.503-1.488-1.503zm0 2.206a.707.707 0 01-.71-.703c0-.387.319-.703.71-.703.381 0 .69.316.69.703 0 .387-.309.703-.69.703z"/>
    <path fill="url(#d)" d="M14.61 3.005c-.83 0-1.505.675-1.505 1.503 0 .829.675 1.503 1.505 1.503.82 0 1.488-.674 1.488-1.503 0-.828-.668-1.503-1.488-1.503zm0 2.206a.706.706 0 01-.708-.703c0-.387.317-.703.708-.703.381 0 .69.316.69.703 0 .387-.309.703-.69.703z"/>
    <path fill="url(#e)" d="M45.3 4.108H19.75a.399.399 0 00-.399.4c0 .221.179.4.399.4H45.3c.22 0 .398-.179.398-.4 0-.22-.178-.4-.398-.4z"/>
    <path fill="url(#f)" d="M20.28 25.967a.398.398 0 00.56-.042.402.402 0 00-.041-.564l-4.47-3.868 4.47-3.872a.402.402 0 00.042-.564.398.398 0 00-.563-.042l-4.82 4.176a.401.401 0 00.002.605l4.82 4.171z"/>
    <path fill="url(#g)" d="M34.67 21.493l-4.47 3.868a.402.402 0 00-.042.564.398.398 0 00.562.042l4.82-4.17a.401.401 0 000-.606l-4.82-4.176a.398.398 0 00-.562.042.402.402 0 00.042.564l4.47 3.872z"/>
    <path fill="url(#h)" d="M22.365 29.09a.398.398 0 00.52-.217l5.965-14.457a.398.398 0 10-.736-.306l-5.965 14.456a.4.4 0 00.216.523z"/>
    <path fill="url(#i)" d="M9.74 32.872h16.094c.22 0 .398-.179.398-.4 0-.22-.178-.4-.398-.4H9.74a.399.399 0 00-.399.4c0 .221.178.4.399.4z"/>
    <path fill="url(#j)" d="M33.873 32.472c0-.22-.179-.4-.399-.4h-4.991a.399.399 0 00-.399.4c0 .221.179.4.399.4h4.991c.22 0 .399-.179.399-.4z"/>
    <path fill="url(#k)" d="M41.259 32.072h-5.681a.399.399 0 00-.399.4c0 .221.178.4.399.4h5.68c.22 0 .399-.179.399-.4 0-.22-.178-.4-.398-.4z"/>
    <path fill="url(#l)" d="M9.74 36.072h12.11c.22 0 .398-.179.398-.4 0-.22-.178-.4-.399-.4H9.741a.399.399 0 00-.399.4c0 .221.178.4.399.4z"/>
    <path fill="url(#j)" d="M24.498 35.272a.399.399 0 00-.398.4c0 .221.178.4.398.4h4.992c.22 0 .398-.179.398-.4 0-.22-.178-.4-.398-.4h-4.992z"/>
    <path fill="url(#m)" d="M41.259 35.272h-9.666a.399.399 0 00-.398.4c0 .221.178.4.398.4h9.666c.22 0 .398-.179.398-.4 0-.22-.178-.4-.398-.4z"/>
    <path fill="url(#n)" d="M17.865 38.472H9.741a.399.399 0 00-.399.4c0 .221.178.4.399.4h8.124c.22 0 .399-.179.399-.4 0-.22-.179-.4-.399-.4z"/>
    <path fill="url(#j)" d="M25.505 38.472h-4.99a.399.399 0 00-.4.4c0 .221.179.4.4.4h4.99c.22 0 .399-.179.399-.4 0-.22-.178-.4-.399-.4z"/>
    <path fill="url(#o)" d="M41.259 38.472h-13.65a.399.399 0 00-.399.4c0 .221.179.4.399.4h13.65c.22 0 .398-.179.398-.4 0-.22-.178-.4-.398-.4z"/>
  </g>
</svg>
